X:173
T:Tartan on the Heather
B:NFID.080b ("strathspey")
173tart
S:JD
L:1/8
M:C
R:hornpipe
Q:280
K:A
B|AFFA EA,CE|AFFA df (3ecB| AFFA EA,CA|1 df (3ecA GAc:|2 df (3ecA BcA||
f|ecca fddf|eAce a2gf|ecca fdec|(3dfd (3cec B<EGB|
ecca fddf|eAce fagb|(3agf (3afe (3fed (3cBA|(3efg (3aga (3fed (3cdB||

%%%

